src/assets/icons/ftic/instagram.svg

<?xml version="1.0" encoding="UTF-8" standalone="no"?>
<svg width="30px" height="30px" viewBox="0 0 30 30" version="1.1" xmlns="http://www.w3.org/2000/svg" xmlns:xlink="http://www.w3.org/1999/xlink">
    <!-- Generator: Sketch 3.7.2 (28276) - http://www.bohemiancoding.com/sketch -->
    <title>Instagram</title>
    <desc>Created with Sketch.</desc>
    <defs>
        <polygon id="path-1" points="0 0 30 0 30 30 0 30"></polygon>
    </defs>
    <g id="Page-1" stroke="none" stroke-width="1" fill="none" fill-rule="evenodd">
        <g id="Instagram">
            <path d="M20.0062,15.0191 C20.0062,17.7621 17.7692,19.9941 15.0192,19.9941 C12.2692,19.9941 10.0322,17.7621 10.0322,15.0191 C10.0322,14.5641 10.0942,14.1231 10.2092,13.7041 L8.6752,13.7041 L8.6752,20.8331 C8.6752,21.0861 8.8812,21.2911 9.1342,21.2911 L20.9042,21.2911 C21.1572,21.2911 21.3632,21.0861 21.3632,20.8331 L21.3632,13.7041 L19.8292,13.7041 C19.9442,14.1231 20.0062,14.5641 20.0062,15.0191" id="Fill-1" fill="#3F729C"></path>
            <path d="M15.0192,18.1643 C16.7602,18.1643 18.1722,16.7563 18.1722,15.0193 C18.1722,13.2823 16.7602,11.8733 15.0192,11.8733 C13.2782,11.8733 11.8662,13.2823 11.8662,15.0193 C11.8662,16.7563 13.2782,18.1643 15.0192,18.1643" id="Fill-3" fill="#3F729C"></path>
            <path d="M18.6495,11.7975 L20.8665,11.7975 C21.1195,11.7975 21.3245,11.5925 21.3245,11.3395 L21.3245,9.1285 C21.3245,8.8765 21.1195,8.6715 20.8665,8.6715 L18.6495,8.6715 C18.3965,8.6715 18.1915,8.8765 18.1915,9.1285 L18.1915,11.3395 C18.1915,11.5925 18.3965,11.7975 18.6495,11.7975" id="Fill-5" fill="#3F729C"></path>
            <g id="Group-9">
                <mask id="mask-2" fill="white">
                    <use xlink:href="#path-1"></use>
                </mask>
                <g id="Clip-8"></g>
                <path d="M23.197,21.2527 C23.197,22.3267 22.325,23.1967 21.248,23.1967 L8.752,23.1967 C7.676,23.1967 6.803,22.3267 6.803,21.2527 L6.803,8.7477 C6.803,7.6737 7.676,6.8027 8.752,6.8027 L21.248,6.8027 C22.325,6.8027 23.197,7.6737 23.197,8.7477 L23.197,21.2527 Z M15,-0.0003 C6.716,-0.0003 0,6.7157 0,14.9997 C0,23.2847 6.716,29.9997 15,29.9997 C23.284,29.9997 30,23.2847 30,14.9997 C30,6.7157 23.284,-0.0003 15,-0.0003 L15,-0.0003 Z" id="Fill-7" fill="#3F729C" mask="url(#mask-2)"></path>
            </g>
        </g>
    </g>
</svg>

<svg xmlns="http://www.w3.org/2000/svg" viewBox="0 0 30 30"><path d="M20.006 15.02c0 2.742-2.237 4.974-4.987 4.974s-4.987-2.232-4.987-4.975c0-.455.062-.896.177-1.315H8.675v7.13c0 .252.206.457.46.457h11.77a.459.459 0 0 0 .458-.458v-7.129H19.83c.115.42.177.86.177 1.315"/><path d="M15.02 18.164a3.15 3.15 0 0 0 3.152-3.145 3.15 3.15 0 0 0-3.153-3.146 3.15 3.15 0 0 0-3.153 3.146 3.15 3.15 0 0 0 3.153 3.145m3.631-6.367h2.216a.458.458 0 0 0 .459-.458V9.13a.458.458 0 0 0-.459-.457H18.65a.458.458 0 0 0-.458.457v2.21c0 .253.204.458.457.458"/><path d="M23.197 21.253a1.946 1.946 0 0 1-1.949 1.944H8.752a1.947 1.947 0 0 1-1.949-1.944V8.748c0-1.074.873-1.945 1.949-1.945h12.496c1.077 0 1.949.87 1.949 1.945v12.505zM15 0C6.716 0 0 6.716 0 15c0 8.285 6.716 15 15 15 8.284 0 15-6.715 15-15 0-8.284-6.716-15-15-15z"/></svg>
